!!!SOCIAL_FUNCTION:	songs concerning the sacred stones
!!!PDT:	1918

Specific Region: Dakotas, Minnesota, Montana, Nebraska
!!!REG: Dakotas and Montana
!!!LING_GROUP: Siouan
!!!LANG: Tone
!!!OTL@ENG: I Was Ordered to Return
!!!ONM: No. 72
**kern
*Imale
*clefF4
*k[b-e-a-d-g-]
*M3/4
*MM72
8.A-
16A-
=1
8.d-
16d-
4d-
16f
16e-
16f
16e-
=2
8.d-
16A-
8.A-
16A-
8.A-
16F
=3
8.A-
16A-
4A-
16d-
16B-
16B-
16A-
=4
8.A-
16A-
(8A-
16.F)
32F
8F
16.E-
32D-
=5||
*M2/4
4D-
4D-
=6
2D-
=7
4..D-
16A-
=8||
*M3/4
8.d-
16d-
4d-
8f
16.e-
32e-
=9||
*M2/4
8.d-
16A-
4A-
=10
[4A-
8.A-]
16F
=11||
*M3/4
8.A-
16A-
4A-
8d-
16.B-
32B-
=12
8.A-
16A-
(8A-
16.F)
32F
(8F
16.E-)
32E-
=13||
*M2/4
4D-
4D-
=14
2D-
=15
4D-
4r
==
*-
!!!CNT: Native American -- Sioux
!!!MRD: 1911/07//-1914///
!!!OCL: Frances Densmore
!!!YOR1: Teton Sioux Music, Bulletin 61,
!!!YOR2: Bureau of American Ethnology, Smithsonian Institution
!!!PPR: Government Printing Office
!!!PPP: Washington, D.C.
!!!PDT: 1918///
!!!ENC: Craig Stuart Sapp
!!!END: 2002/03/25/
!!!EEV: 2002/03/31/
!!!AGN: Song of Personal Dreams/Song Concerning the Sacred Stones
!!!MPN@@SIO: Oku'te
!!!MPN@ENG: Shooter
!!!TXO: Teton Sioux
!!!MLC: Standing Rock Reservation, South Dakota, United States of America
!!!ARL: 45.9/-100.7#
!!!catalog: Catalogue No. 582
!!!PPG: 229
!!!EFL: 72/245
!!!VTS: 118078525
